X: 990
T: Twilight Time [in A]
C:Al Nevins, Morty Nevins, Artie Dunn and Buck Ram
B: jims roots
M:4/4
L:1/8
Q: 1/4=100
K:Amaj
V:1 
"A"(3^DEe fe dc=c^c | "C#7"zCcC B4 | "F#m"(3=C^Cc dc BAGA | "A7"zA,AA, =G4 |
"D"zfed "Dm"edcB | "A"ecAE "F#7"G3D- | [1 ^D"B" c2 D "Bm"=DcBA | "E7"B8"E9":| [2 J^D"B7"c2 D "E7"=DEGB | "A"[C8A] ||
"C#7"G6GA |AcGA c3B | "F#m"BAGA F2"Ddim"D"F#m"C- | C2z "Ddim"D"F#m"C4 |
"B7"A6 FG | ABFG A3^A | "E7"BAGA G2 "D"F"E7"E- | E2z "Adim"_E"E7"D4 ||
% abcbook-tune_id 6298c2978068d21f63a434ba


% abcbook-boost 0
% abcbook-tablature 
% abcbook-transpose 
% abcbook-lastupdated 1654178456412
% abcbook-soundfonts 
% abcbook-repeats 1


